!!!OTL: Lieschle am Kirschbaum (295), S.611
!!!id: T0485
**kern
*clefG2
*k[]
*C:
{16c
=1
16c
4g
4g
4f
4f
=2
4e
4g
4g}
4r
=3
{4g
4b
2dd
=4
4g
4cc
2ee
=5
4g
8g
8g
8.f
16f
8f
8f
=6
4e
4g
4g}
4r
=7yy
{4g
4b
4dd
4ee
=8
2cc}
2r
==
*-
!!!minrhy: 16
!!!meters: 4/4 ]  ZZ[3
!!!cut: Lieschle am Kirschbaum (295), S.611
!!!reg: Luxemburg
!!!trd: Singendes Volk, Esch-Alzette 1937 posth.
!!!rhy1:   X__X__X__X__  X__X__X__0__
!!!rhy2: X__X__X___  X__X__X___  X__X_X_X_.XX_X_  X__X__X__0__
!!!key: T0485  16  C 4/4 ]  ZZ[3
!!!mod: SECHSTONSKALA DUR ?]  AMBITUS[8
!!!kad: 55+1
!!!akz: 5435_5+25+35435_5+2+1_
!!!fot: 'a__b__bw_
!!!for: 'a__b__aw_
!!!fok: 'V__~__^a_
!! PHRAS[VOLLTAKTIG]
!!!fkt: ???
!!!bem: Hamm, fff Elisabeth Thoma, *1857, 23.2.1933
!! THILL, Mathias
!! PR[36] 2K[0] 2G[14] 3K[9] 3G[0] 4A[2] 4Ü[0] 5A[2] 6K[0] 6G[0]
!! 7K[0] 7G[0] 8A[0] MEHR[0] SI[27] ABS[44] SR[14] SP[14]
!! ST[12] 2k[2] 2g[23] 3k[11] 3g[0] 4d[0] 4ü[0] 5d[0] 6k[0] 6g[0]
!! 7k[0] 7g[0] 8d[0] mehr[0] si[36] dm[-9] sr[25] sp[11]
!! 1F[4] 2F[64] 3F[18] 4F[0] LF[0] 2P[0] 3P[14] 4P[0] TRI[0] DF[4] AB[50]
!! TF[0] U3K[0] U3[0] U4[0] U4Ü[0] U5[0] U6K[0] U6[0] U7K[0] U7[0]
!! N1[11] N2K[0] N2[18] N3K[0] N3[47] N4[7] N4Ü[0] N5[18] N6K[0] N6[0]
!!!n7k: 0] N7[0] O1[0] O2K[0] O2[0] O3K[0] O3[0] HÖ[0
